X:1
T: May in the Hague
N:
C:
S:
A:
O:
R:
M:6/8
K:G
I:speed 150
%W: A1
% voice 1 (1 lines, 31 notes)
K:G
M:6/8
L:1/16
A2 |A3 B A2 A3 B c2 d4 A2 F4 d2 c3 d B2 A3 B G2 F3 E F2 D4 a2 |g3 a f2 e3 d c2 d6d4 A2
%W: A2
% voice 1 (1 lines, 31 notes)
A3 B A2 A3 B c2 d4 A2 F4 d2 |c3 d B2 A3 B G2 F3 E F2 D4 a2 g3 a f2 e3 d c2 d6d4 B c |
%W: B1
% voice 1 (1 lines, 42 notes)
d3 e d2 c3 d B2 B3 c ^A2 B4 F2 G3 A G2 F3 G E2 E3 F ^D2 E4 B2 |e6 e3 f g2 a3 g f2 b3 a g2 f3 e d2 e3 d c2 d6d4 B c |
%W: B2
% voice 1 (1 lines, 41 notes)
d3 e d2 c3 d B2 B3 c ^A2 B4 F2 G3 A G2 F3 G E2 E3 F ^D2 E4 B2 |e6 e3 f g2 a3 g f2 b3 a g2 f3 e d2 e3 d c2 d6d4 A2 |
%W: A3
% voice 1 (1 lines, 29 notes)
A3 B A2 A3 B c2 d4 A2 F4 d2 c3 d B2 A3 B G2 F3 E F2 D4 a2 |g3 a f2 e3 d c2 d6d4 ||
